Numix/32/mimetypes/application-vnd.geogebra.file.svg

<?xml version="1.0" encoding="UTF-8" standalone="no"?>
<svg
   xmlns:dc="http://purl.org/dc/elements/1.1/"
   xmlns:cc="http://creativecommons.org/ns#"
   xmlns:rdf="http://www.w3.org/1999/02/22-rdf-syntax-ns#"
   xmlns:svg="http://www.w3.org/2000/svg"
   xmlns="http://www.w3.org/2000/svg"
   xmlns:sodipodi="http://sodipodi.sourceforge.net/DTD/sodipodi-0.dtd"
   xmlns:inkscape="http://www.inkscape.org/namespaces/inkscape"
   width="32"
   height="32"
   viewBox="0 0 32 32"
   id="svg2"
   version="1.1"
   inkscape:version="0.91 r13725"
   sodipodi:docname="application-vnd.geogebra.file.svg">
  <metadata
     id="metadata16">
    <rdf:RDF>
      <cc:Work
         rdf:about="">
        <dc:format>image/svg+xml</dc:format>
        <dc:type
           rdf:resource="http://purl.org/dc/dcmitype/StillImage" />
        <dc:title />
      </cc:Work>
    </rdf:RDF>
  </metadata>
  <defs
     id="defs14">
    <clipPath
       id="clipPath-258929573">
      <g
         transform="translate(0,-1004.3622)"
         id="g17">
        <path
           inkscape:connector-curvature="0"
           d="m -24,13 c 0,1.105 -0.672,2 -1.5,2 -0.828,0 -1.5,-0.895 -1.5,-2 0,-1.105 0.672,-2 1.5,-2 0.828,0 1.5,0.895 1.5,2 z"
           transform="matrix(15.333333,0,0,11.5,414.99999,878.8622)"
           style="fill:#1890d0"
           id="path19" />
      </g>
    </clipPath>
  </defs>
  <sodipodi:namedview
     pagecolor="#ffffff"
     bordercolor="#666666"
     borderopacity="1"
     objecttolerance="10"
     gridtolerance="10"
     guidetolerance="10"
     inkscape:pageopacity="0"
     inkscape:pageshadow="2"
     inkscape:window-width="1920"
     inkscape:window-height="1013"
     id="namedview12"
     showgrid="true"
     inkscape:zoom="32"
     inkscape:cx="16.928296"
     inkscape:cy="12.429038"
     inkscape:window-x="0"
     inkscape:window-y="27"
     inkscape:window-maximized="1"
     inkscape:current-layer="svg2">
    <inkscape:grid
       type="xygrid"
       id="grid3004" />
  </sodipodi:namedview>
  <path
     style="fill:#6f72db;fill-opacity:1"
     d="M 5.335888,2.97e-4 C 4.648414,3.12e-4 4,0.676788 4,1.394031 L 4,30.606268 C 4,31.282757 4.687474,32 5.335888,32 l 21.327332,0 c 0.648414,0 1.335888,-0.717243 1.335888,-1.393732 L 28,8.9999999 19,0 z"
     id="path4-1"
     inkscape:connector-curvature="0"
     sodipodi:nodetypes="ssssssccs" />
  <path
     style="fill:#000000;fill-opacity:0.19599998"
     d="M 21,8.9999999 28,16 28,8.9999999 z"
     id="path6-4"
     inkscape:connector-curvature="0"
     sodipodi:nodetypes="cccc" />
  <path
     style="fill:#ffffff;fill-opacity:0.39200003"
     d="m 19.000306,2.97e-4 8.991594,8.9997029 -7.613262,0 c -0.672951,0 -1.378332,-0.7134896 -1.378332,-1.3864402 z"
     id="path8-6"
     inkscape:connector-curvature="0"
     sodipodi:nodetypes="ccssc" />
  <path
     style="color:#000000;font-style:normal;font-variant:normal;font-weight:normal;font-stretch:normal;font-size:medium;line-height:normal;font-family:sans-serif;text-indent:0;text-align:start;text-decoration:none;text-decoration-line:none;text-decoration-style:solid;text-decoration-color:#000000;letter-spacing:normal;word-spacing:normal;text-transform:none;direction:ltr;block-progression:tb;writing-mode:lr-tb;baseline-shift:baseline;text-anchor:start;white-space:normal;clip-rule:nonzero;display:inline;overflow:visible;visibility:visible;opacity:1;isolation:auto;mix-blend-mode:normal;color-interpolation:sRGB;color-interpolation-filters:linearRGB;solid-color:#000000;solid-opacity:1;fill:#ffffff;fill-opacity:1;fill-rule:nonzero;stroke:none;stroke-width:1.37609005;stroke-linecap:round;stroke-linejoin:round;stroke-miterlimit:4;stroke-dasharray:none;stroke-dashoffset:0;stroke-opacity:1;color-rendering:auto;image-rendering:auto;shape-rendering:auto;text-rendering:auto;enable-background:accumulate"
     d="M 16 11 C 15.007001 11 14.184474 11.732534 14.03125 12.683594 C 12.751143 13.232275 11.611669 14.085554 10.736328 15.144531 C 10.507948 15.053386 10.260159 15 10 15 C 8.898785 15 8 15.898785 8 17 C 8 17.764251 8.4372881 18.423281 9.0703125 18.759766 C 8.8599576 20.282003 9.2256822 21.668413 10.025391 22.746094 C 10.014551 22.830085 10 22.913149 10 23 C 10 24.101215 10.898785 25 12 25 C 12.364683 25 12.703055 24.894505 12.998047 24.722656 C 13.538472 24.877848 14.105942 24.989333 14.722656 24.998047 C 16.252862 25.019667 17.7547 24.5438 19.060547 23.753906 C 19.34206 23.905611 19.658981 24 20 24 C 21.101215 24 22 23.101215 22 22 C 22 21.695422 21.925512 21.409264 21.802734 21.150391 C 22.318774 20.368863 22.701394 19.510799 22.880859 18.597656 C 22.938621 18.303761 22.965657 18.016314 22.980469 17.732422 C 23.58583 17.387864 24 16.743697 24 16 C 24 14.898785 23.101215 14 22 14 C 21.927172 14 21.857965 14.013824 21.787109 14.021484 C 20.855584 12.903433 19.441656 12.168725 17.738281 12.033203 C 17.395675 11.420761 16.748977 11 16 11 z M 16 11.566406 C 16.795073 11.566406 17.433594 12.204927 17.433594 13 C 17.433594 13.795073 16.795073 14.433594 16 14.433594 C 15.204927 14.433594 14.566406 13.795073 14.566406 13 C 14.566406 12.204927 15.204927 11.566406 16 11.566406 z M 17.941406 13.458984 C 18.962604 13.646214 19.81455 14.107965 20.441406 14.763672 C 20.169558 15.105308 20 15.531392 20 16 C 20 16.95793 20.680181 17.761875 21.582031 17.955078 C 21.569142 18.15982 21.547343 18.367052 21.505859 18.578125 C 21.392705 19.15387 21.163148 19.696281 20.875 20.210938 C 20.609517 20.080266 20.314855 20 20 20 C 18.898785 20 18 20.898785 18 22 C 18 22.290247 18.065609 22.565081 18.177734 22.814453 C 17.205576 23.342559 16.116112 23.666327 14.988281 23.650391 C 14.612562 23.645082 14.261207 23.592528 13.921875 23.519531 C 13.967209 23.352793 14 23.180719 14 23 C 14 21.898785 13.101215 21 12 21 C 11.596378 21 11.221195 21.12288 10.90625 21.330078 C 10.537126 20.631877 10.368911 19.822292 10.445312 18.945312 C 11.332886 18.741369 12 17.947765 12 17 C 12 16.613208 11.884951 16.253935 11.693359 15.947266 C 12.365993 15.106466 13.252815 14.421083 14.259766 13.966797 C 14.602246 14.579683 15.250693 15 16 15 C 16.942785 15 17.732338 14.339563 17.941406 13.458984 z M 22 14.566406 C 22.795073 14.566406 23.433594 15.204927 23.433594 16 C 23.433594 16.795073 22.795073 17.433594 22 17.433594 C 21.204927 17.433594 20.566406 16.795073 20.566406 16 C 20.566406 15.204927 21.204927 14.566406 22 14.566406 z M 10 15.566406 C 10.795073 15.566406 11.433594 16.204927 11.433594 17 C 11.433594 17.795073 10.795073 18.433594 10 18.433594 C 9.204927 18.433594 8.5664062 17.795073 8.5664062 17 C 8.5664062 16.204927 9.204927 15.566406 10 15.566406 z M 20 20.566406 C 20.795073 20.566406 21.433594 21.204927 21.433594 22 C 21.433594 22.795073 20.795073 23.433594 20 23.433594 C 19.204927 23.433594 18.566406 22.795073 18.566406 22 C 18.566406 21.204927 19.204927 20.566406 20 20.566406 z M 12 21.566406 C 12.795073 21.566406 13.433594 22.204927 13.433594 23 C 13.433594 23.795073 12.795073 24.433594 12 24.433594 C 11.204927 24.433594 10.566406 23.795073 10.566406 23 C 10.566406 22.204927 11.204927 21.566406 12 21.566406 z "
     id="path3923" />
</svg>

<svg xmlns="http://www.w3.org/2000/svg" viewBox="0 0 32 32">
 <path d="m 5.336 0 c -0.687 0 -1.336 0.676 -1.336 1.394 l 0 29.21 c 0 0.676 0.687 1.394 1.336 1.394 l 21.327 0 c 0.648 0 1.336 -0.717 1.336 -1.394 l 0.001 -21.606 -9 -9 z" style="fill:#6f72db;fill-opacity:1"/>
 <path d="m 21 9 7 7 0 -7 z" style="fill:#000;fill-opacity:0.196"/>
 <path d="m 19 0 8.992 9 -7.613 0 c -0.673 0 -1.378 -0.713 -1.378 -1.386 z" style="fill:#fff;fill-opacity:0.392"/>
 <path d="m 16 11 c -0.993 0 -1.816 0.733 -1.969 1.684 c -1.28 0.549 -2.42 1.402 -3.295 2.461 c -0.228 -0.091 -0.476 -0.145 -0.736 -0.145 c -1.101 0 -2 0.899 -2 2 c 0 0.764 0.437 1.423 1.07 1.76 c -0.21 1.522 0.155 2.909 0.955 3.986 c -0.011 0.084 -0.025 0.167 -0.025 0.254 c 0 1.101 0.899 2 2 2 c 0.365 0 0.703 -0.105 0.998 -0.277 c 0.54 0.155 1.108 0.267 1.725 0.275 c 1.53 0.022 3.03 -0.454 4.338 -1.244 c 0.282 0.152 0.598 0.246 0.939 0.246 c 1.101 0 2 -0.899 2 -2 c 0 -0.305 -0.074 -0.591 -0.197 -0.85 c 0.516 -0.782 0.899 -1.64 1.078 -2.553 c 0.058 -0.294 0.085 -0.581 0.1 -0.865 c 0.605 -0.345 1.02 -0.989 1.02 -1.732 c 0 -1.101 -0.899 -2 -2 -2 c -0.073 0 -0.142 0.014 -0.213 0.021 c -0.932 -1.118 -2.345 -1.853 -4.049 -1.988 c -0.343 -0.612 -0.989 -1.033 -1.738 -1.033 z m 0 0.566 c 0.795 0 1.434 0.639 1.434 1.434 c 0 0.795 -0.639 1.434 -1.434 1.434 c -0.795 0 -1.434 -0.639 -1.434 -1.434 c 0 -0.795 0.639 -1.434 1.434 -1.434 z m 1.941 1.893 c 1.021 0.187 1.873 0.649 2.5 1.305 c -0.272 0.342 -0.441 0.768 -0.441 1.236 c 0 0.958 0.68 1.762 1.582 1.955 c -0.013 0.205 -0.035 0.412 -0.076 0.623 c -0.113 0.576 -0.343 1.118 -0.631 1.633 c -0.265 -0.131 -0.56 -0.211 -0.875 -0.211 c -1.101 0 -2 0.899 -2 2 c 0 0.29 0.066 0.565 0.178 0.814 c -0.972 0.528 -2.062 0.852 -3.189 0.836 c -0.376 -0.005 -0.727 -0.058 -1.066 -0.131 c 0.045 -0.167 0.078 -0.339 0.078 -0.52 c 0 -1.101 -0.899 -2 -2 -2 c -0.404 0 -0.779 0.123 -1.094 0.33 c -0.369 -0.698 -0.537 -1.508 -0.461 -2.385 c 0.888 -0.204 1.555 -0.998 1.555 -1.945 c 0 -0.387 -0.115 -0.746 -0.307 -1.053 c 0.673 -0.841 1.559 -1.526 2.566 -1.98 c 0.342 0.613 0.991 1.033 1.74 1.033 c 0.943 0 1.732 -0.66 1.941 -1.541 z m 4.059 1.107 c 0.795 0 1.434 0.639 1.434 1.434 c 0 0.795 -0.639 1.434 -1.434 1.434 c -0.795 0 -1.434 -0.639 -1.434 -1.434 c 0 -0.795 0.639 -1.434 1.434 -1.434 z m -12 1 c 0.795 0 1.434 0.639 1.434 1.434 c 0 0.795 -0.639 1.434 -1.434 1.434 c -0.795 0 -1.434 -0.639 -1.434 -1.434 c 0 -0.795 0.639 -1.434 1.434 -1.434 z m 10 5 c 0.795 0 1.434 0.639 1.434 1.434 c 0 0.795 -0.639 1.434 -1.434 1.434 c -0.795 0 -1.434 -0.639 -1.434 -1.434 c 0 -0.795 0.639 -1.434 1.434 -1.434 z m -8 1 c 0.795 0 1.434 0.639 1.434 1.434 c 0 0.795 -0.639 1.434 -1.434 1.434 c -0.795 0 -1.434 -0.639 -1.434 -1.434 c 0 -0.795 0.639 -1.434 1.434 -1.434 z" mix-blend-mode="normal" isolation="auto" white-space="normal" solid-opacity="1" solid-color="#000000" style="visibility:visible;shape-rendering:auto;color-interpolation-filters:linearRGB;fill:#fff;opacity:1;image-rendering:auto;fill-opacity:1;stroke:none;display:inline;color:#000;fill-rule:nonzero;color-rendering:auto;color-interpolation:sRGB"/>
</svg>
